icons/arrow-block-downright.svg

<svg width="24" height="24" viewBox="0 0 24 24" fill="none" xmlns="http://www.w3.org/2000/svg">
<path fill-rule="evenodd" clip-rule="evenodd" d="M8.36697 5.81188L5.8262 8.35265L10.6217 13.2571L8.32446 15.5544L18.1643 18.1485L15.5493 8.22958L13.167 10.6119L8.36697 5.81188ZM8.36697 4.25122C8.66583 4.25122 9.02482 4.34841 9.2973 4.62089L13.167 8.49056L15.0366 6.62089C15.3117 6.34587 15.683 6.31613 15.91 6.34451C16.1748 6.37762 16.5424 6.52512 16.7378 6.91581L16.7724 6.98511L19.6946 18.0693C19.8163 18.5562 19.6331 19.0322 19.3573 19.333C19.081 19.6345 18.5708 19.8894 18.0167 19.6609L7.13349 16.7917C6.92519 16.7615 6.73541 16.661 6.59397 16.5029C6.4407 16.3316 6.38235 16.1372 6.36201 15.9948C6.34103 15.8479 6.35172 15.701 6.38628 15.5677C6.41878 15.4423 6.4882 15.2693 6.63664 15.1209L8.51223 13.2453L4.63296 9.27786C4.36328 9.00583 4.26697 8.64873 4.26697 8.35122C4.26697 8.05236 4.36416 7.69337 4.63664 7.42089L7.43664 4.62089C7.70912 4.34841 8.06811 4.25122 8.36697 4.25122Z" fill="black"/>
</svg>

<svg xmlns="http://www.w3.org/2000/svg" fill="none" viewBox="0 0 24 24">
  <path fill="#000" fill-rule="evenodd" d="m8.367 5.812-2.54 2.54 4.795 4.905-2.298 2.297 9.84 2.594L15.55 8.23l-2.382 2.382-4.8-4.8Zm0-1.56c.299 0 .658.096.93.369l3.87 3.87 1.87-1.87c.275-.275.646-.305.873-.276.265.033.632.18.828.57l.034.07 2.923 11.084c.121.487-.062.963-.338 1.264-.276.302-.786.556-1.34.328L7.133 16.79a.892.892 0 0 1-.539-.288.964.964 0 0 1-.232-.508 1.095 1.095 0 0 1 .024-.427.978.978 0 0 1 .25-.447l1.876-1.876-3.879-3.967a1.317 1.317 0 0 1-.366-.927c0-.299.097-.658.37-.93l2.8-2.8c.272-.273.631-.37.93-.37Z" clip-rule="evenodd"/>
</svg>
